;FLAVOR:Marlin
;TIME:8985
;Filament used: 9.62197m
;Layer height: 0.3
;MINX:68.627
;MINY:36.876
;MINZ:0.2
;MAXX:151.373
;MAXY:183.123
;MAXZ:25.3
;Generated with Cura_SteamEngine 4.12.1
M140 S60
M105
M190 S60
M104 S200
M105
M109 S200
M82 ;absolute extrusion mode
; Ender 3 Custom Start G-code
G92 E0 ; Reset Extruder
G28 ; Home all axes
G1 Z2.0 F3000 ; Move Z Axis up little to prevent scratching of Heat Bed
G1 X0.1 Y20 Z0.3 F5000.0 ; Move to start position
G1 X0.1 Y200.0 Z0.3 F1500.0 E15 ; Draw the first line
G1 X0.4 Y200.0 Z0.3 F5000.0 ; Move to side a little
G1 X0.4 Y20 Z0.3 F1500.0 E30 ; Draw the second line
G92 E0 ; Reset Extruder
G1 Z2.0 F3000 ; Move Z Axis up little to prevent scratching of Heat Bed
G1 X5 Y20 Z0.3 F5000.0 ; Move over to prevent blob squish
G92 E0
G92 E0
G1 F1500 E-6.5
;LAYER_COUNT:84
;LAYER:0
M107
G1 F300 Z0.4
G0 F6000 X70.561 Y42.111 Z0.4
;TYPE:SKIRT
G1 F300 Z0.2
G1 F1500 E0
G1 F1200 X71.104 Y41.346 E0.0312
G1 X71.711 Y40.631 E0.0624
G1 X72.375 Y39.969 E0.09358
G1 X73.094 Y39.367 E0.12477
G1 X73.654 Y38.964 E0.14772
G1 X73.874 Y38.816 E0.15654
G1 X74.674 Y38.326 E0.18774
G1 X75.512 Y37.906 E0.21892
G1 X76.384 Y37.559 E0.25013
G1 X77.306 Y37.281 E0.28216
G1 X77.495 Y37.233 E0.28865
G1 X78.413 Y37.042 E0.31983
G1 X79.344 Y36.929 E0.35103
G1 X80.002 Y36.897 E0.37294
G1 X81.187 Y36.877 E0.41236
G1 X139.042 Y36.876 E2.33662
G1 X139.635 Y36.883 E2.35635
G1 X140.019 Y36.895 E2.36912
G1 X140.39 Y36.913 E2.38148
G1 X141.324 Y36.998 E2.41267
G1 X142.247 Y37.163 E2.44386
G1 X143.153 Y37.406 E2.47506
G1 X144.025 Y37.72 E2.50588
G1 X144.279 Y37.824 E2.51501
G1 X145.131 Y38.216 E2.5462
G1 X145.947 Y38.68 E2.57743
G1 X146.72 Y39.211 E2.60862
G1 X147.445 Y39.805 E2.63979
G1 X148.116 Y40.46 E2.67098
G1 X148.685 Y41.112 E2.69976
G1 X148.853 Y41.321 E2.70868
G1 X149.408 Y42.077 E2.73987
G1 X149.898 Y42.877 E2.77107
G1 X150.318 Y43.715 E2.80225
G1 X150.583 Y44.361 E2.82548
G1 X150.663 Y44.575 E2.83307
G1 X150.953 Y45.467 E2.86427
G1 X151.167 Y46.38 E2.89546
G1 X151.302 Y47.308 E2.92665
G1 X151.346 Y47.882 E2.9458
G1 X151.352 Y48.003 E2.94983
G1 X151.364 Y48.396 E2.9629
G1 X151.373 Y49.127 E2.98722
G1 X151.373 Y170.945 E7.0389
G1 X151.367 Y171.376 E7.05324
G1 X151.356 Y171.737 E7.06525
G1 X151.338 Y172.122 E7.07807
G1 X151.254 Y173.056 E7.10926
G1 X151.091 Y173.979 E7.14044
G1 X150.85 Y174.886 E7.17165
G1 X150.521 Y175.796 E7.20383
G1 X150.416 Y176.051 E7.21301
G1 X150.023 Y176.902 E7.24418
G1 X149.558 Y177.717 E7.27539
G1 X149.025 Y178.489 E7.30659
G1 X148.429 Y179.213 E7.33778
G1 X147.773 Y179.883 E7.36897
G1 X147.107 Y180.461 E7.3983
G1 X146.899 Y180.627 E7.40715
G1 X146.141 Y181.18 E7.43836
G1 X145.34 Y181.667 E7.46954
G1 X144.499 Y182.083 E7.50074
G1 X143.873 Y182.338 E7.52323
G1 X143.658 Y182.418 E7.53086
G1 X142.766 Y182.708 E7.56205
G1 X141.852 Y182.92 E7.59326
G1 X140.924 Y183.054 E7.62445
G1 X140.354 Y183.096 E7.64345
G1 X140.23 Y183.102 E7.64758
G1 X139.843 Y183.114 E7.66046
G1 X139.09 Y183.123 E7.68551
G1 X80.809 Y183.123 E9.62394
G1 X80.365 Y183.117 E9.63871
G1 X79.981 Y183.105 E9.65149
G1 X79.61 Y183.087 E9.66384
G1 X78.676 Y183.002 E9.69504
G1 X77.753 Y182.837 E9.72622
G1 X76.847 Y182.594 E9.75742
G1 X75.969 Y182.277 E9.78847
G1 X75.713 Y182.172 E9.79767
G1 X74.861 Y181.78 E9.82886
G1 X74.046 Y181.316 E9.86006
G1 X73.273 Y180.784 E9.89127
G1 X72.548 Y180.189 E9.92246
G1 X71.877 Y179.534 E9.95365
G1 X71.278 Y178.842 E9.98409
G1 X71.107 Y178.627 E9.99323
G1 X70.555 Y177.869 E10.02442
G1 X70.07 Y177.066 E10.05562
G1 X69.654 Y176.226 E10.08679
G1 X69.368 Y175.511 E10.11241
G1 X69.293 Y175.303 E10.11976
G1 X69.013 Y174.408 E10.15095
G1 X68.81 Y173.493 E10.18212
G1 X68.654 Y172.104 E10.22861
G1 X68.648 Y171.98 E10.23274
G1 X68.636 Y171.588 E10.24579
G1 X68.627 Y170.821 E10.2713
G1 X68.628 Y49.001 E14.32305
G1 X68.639 Y48.321 E14.34567
G1 X68.695 Y47.385 E14.37686
G1 X68.887 Y46.171 E14.41774
G1 X68.929 Y45.977 E14.42434
G1 X69.166 Y45.07 E14.45552
G1 X69.48 Y44.186 E14.48672
G1 X69.972 Y43.133 E14.52538
G1 X70.086 Y42.919 E14.53344
G1 X70.561 Y42.111 E14.56461
G0 F6000 X70.906 Y42.314
G1 F1200 X71.441 Y41.565 E14.59523
G1 X72.039 Y40.865 E14.62585
G1 X72.695 Y40.219 E14.65647
G1 X73.405 Y39.633 E14.68709
G1 X73.877 Y39.296 E14.70638
G1 X74.097 Y39.148 E14.7152
G1 X74.883 Y38.668 E14.74583
G1 X75.707 Y38.257 E14.77646
G1 X76.564 Y37.92 E14.80709
G1 X77.405 Y37.669 E14.83628
G1 X77.594 Y37.621 E14.84276
G1 X78.495 Y37.433 E14.87338
G1 X79.409 Y37.325 E14.90399
G1 X80.009 Y37.297 E14.92396
G1 X81.187 Y37.277 E14.96315
G1 X139.042 Y37.276 E16.88742
G1 X139.629 Y37.283 E16.90694
G1 X140 Y37.294 E16.91929
G1 X140.371 Y37.312 E16.93164
G1 X141.287 Y37.397 E16.96224
G1 X142.193 Y37.561 E16.99286
G1 X143.082 Y37.802 E17.0235
G1 X143.874 Y38.09 E17.05153
G1 X144.128 Y38.194 E17.06065
G1 X144.964 Y38.58 E17.09128
G1 X145.763 Y39.037 E17.1219
G1 X146.52 Y39.561 E17.15252
G1 X147.228 Y40.149 E17.18313
G1 X147.883 Y40.796 E17.21375
G1 X148.373 Y41.363 E17.23867
G1 X148.541 Y41.572 E17.24759
G1 X149.086 Y42.314 E17.27821
G1 X149.565 Y43.1 E17.30883
G1 X149.973 Y43.925 E17.33944
G1 X150.208 Y44.501 E17.36013
G1 X150.288 Y44.715 E17.36773
G1 X150.573 Y45.591 E17.39837
G1 X150.78 Y46.488 E17.42899
G1 X150.909 Y47.399 E17.45959
G1 X150.946 Y47.902 E17.47636
G1 X150.952 Y48.023 E17.48039
G1 X150.964 Y48.402 E17.49301
G1 X150.973 Y49.127 E17.51712
G1 X150.973 Y170.94 E21.56864
G1 X150.967 Y171.371 E21.58297
G1 X150.956 Y171.718 E21.59452
G1 X150.938 Y172.103 E21.60734
G1 X150.856 Y173.02 E21.63796
G1 X150.693 Y173.926 E21.66858
G1 X150.453 Y174.815 E21.69921
G1 X150.152 Y175.644 E21.72854
G1 X150.047 Y175.899 E21.73771
G1 X149.659 Y176.734 E21.76834
G1 X149.201 Y177.533 E21.79897
G1 X148.675 Y178.289 E21.8296
G1 X148.086 Y178.996 E21.86021
G1 X147.438 Y179.649 E21.8908
G1 X146.857 Y180.148 E21.91628
G1 X146.649 Y180.314 E21.92513
G1 X145.905 Y180.856 E21.95574
G1 X145.117 Y181.332 E21.98636
G1 X144.291 Y181.738 E22.01697
G1 X143.734 Y181.964 E22.03697
G1 X143.519 Y182.044 E22.0446
G1 X142.643 Y182.327 E22.07522
G1 X141.745 Y182.533 E22.10586
G1 X140.834 Y182.661 E22.13646
G1 X140.334 Y182.697 E22.15313
G1 X140.21 Y182.703 E22.15726
G1 X139.837 Y182.714 E22.16967
G1 X139.09 Y182.723 E22.19452
G1 X80.815 Y182.723 E24.13275
G1 X80.371 Y182.717 E24.14752
G1 X80 Y182.706 E24.15987
G1 X79.629 Y182.688 E24.17222
G1 X78.713 Y182.603 E24.20282
G1 X77.807 Y182.439 E24.23344
G1 X76.918 Y182.198 E24.26408
G1 X76.121 Y181.907 E24.2923
G1 X75.865 Y181.802 E24.3015
G1 X75.029 Y181.416 E24.33213
G1 X74.23 Y180.959 E24.36274
G1 X73.473 Y180.434 E24.39338
G1 X72.765 Y179.846 E24.42399
G1 X72.111 Y179.198 E24.45461
G1 X71.591 Y178.593 E24.48115
G1 X71.42 Y178.378 E24.49028
G1 X70.879 Y177.633 E24.52091
G1 X70.404 Y176.845 E24.55151
G1 X70 Y176.017 E24.58215
G1 X69.744 Y175.376 E24.60511
G1 X69.669 Y175.168 E24.61246
G1 X69.395 Y174.289 E24.64308
G1 X69.198 Y173.389 E24.67373
G1 X69.053 Y172.084 E24.7174
G1 X69.047 Y171.96 E24.72153
G1 X69.036 Y171.583 E24.73407
G1 X69.027 Y170.821 E24.75942
G1 X69.028 Y49.008 E28.81094
G1 X69.039 Y48.328 E28.83356
G1 X69.094 Y47.409 E28.86418
G1 X69.278 Y46.256 E28.90301
G1 X69.32 Y46.062 E28.90961
G1 X69.554 Y45.172 E28.94022
G1 X69.864 Y44.305 E28.97084
G1 X70.325 Y43.321 E29.00699
G1 X70.439 Y43.107 E29.01505
G1 X70.906 Y42.314 E29.04566
G0 F6000 X71.251 Y42.518
G1 F1200 X71.778 Y41.784 E29.07571
G1 X72.367 Y41.1 E29.10574
G1 X73.014 Y40.47 E29.13577
G1 X73.715 Y39.9 E29.16582
G1 X74.101 Y39.628 E29.18153
G1 X74.321 Y39.48 E29.19035
G1 X75.092 Y39.009 E29.2204
G1 X75.901 Y38.609 E29.25041
G1 X76.743 Y38.282 E29.28046
G1 X77.503 Y38.057 E29.30682
G1 X77.692 Y38.009 E29.3133
G1 X78.577 Y37.826 E29.34336
G1 X79.474 Y37.721 E29.3734
G1 X80.016 Y37.697 E29.39144
G1 X81.187 Y37.677 E29.4304
G1 X139.042 Y37.676 E31.35466
G1 X139.624 Y37.683 E31.37402
G1 X139.98 Y37.694 E31.38587
G1 X140.351 Y37.712 E31.39822
G1 X141.251 Y37.796 E31.42829
G1 X142.139 Y37.959 E31.45831
G1 X143.009 Y38.199 E31.48833
G1 X143.722 Y38.461 E31.5136
G1 X143.976 Y38.565 E31.52273
G1 X144.796 Y38.943 E31.55276
G1 X145.579 Y39.393 E31.58279
G1 X146.319 Y39.911 E31.61284
G1 X147.011 Y40.492 E31.64289
G1 X147.648 Y41.131 E31.6729
G1 X148.061 Y41.614 E31.69404
G1 X148.229 Y41.823 E31.70296
G1 X148.763 Y42.551 E31.73298
G1 X149.231 Y43.323 E31.76301
G1 X149.628 Y44.134 E31.79304
G1 X149.833 Y44.641 E31.81123
G1 X149.913 Y44.855 E31.81883
G1 X150.192 Y45.714 E31.84887
G1 X150.393 Y46.595 E31.87893
G1 X150.546 Y47.922 E31.92335
G1 X150.552 Y48.043 E31.92738
G1 X150.564 Y48.407 E31.9395
G1 X150.573 Y49.127 E31.96345
G1 X150.573 Y170.934 E36.01476
G1 X150.567 Y171.365 E36.0291
G1 X150.557 Y171.699 E36.04021
G1 X150.539 Y172.084 E36.05303
G1 X150.457 Y172.984 E36.08309
G1 X150.295 Y173.872 E36.11311
G1 X150.056 Y174.743 E36.14315
G1 X149.782 Y175.492 E36.16968
G1 X149.677 Y175.747 E36.17885
G1 X149.296 Y176.566 E36.2089
G1 X148.845 Y177.348 E36.23892
G1 X148.326 Y178.087 E36.26896
G1 X147.744 Y178.777 E36.29898
G1 X147.103 Y179.414 E36.32904
G1 X146.608 Y179.835 E36.35065
G1 X146.4 Y180.001 E36.3595
G1 X145.669 Y180.533 E36.38957
G1 X144.895 Y180.998 E36.4196
G1 X144.083 Y181.392 E36.44962
G1 X143.594 Y181.589 E36.46716
G1 X143.379 Y181.669 E36.47479
G1 X142.52 Y181.946 E36.5048
G1 X141.639 Y182.146 E36.53485
G1 X140.315 Y182.297 E36.57917
G1 X140.191 Y182.303 E36.5833
G1 X139.832 Y182.314 E36.59525
G1 X139.09 Y182.323 E36.61993
G1 X80.82 Y182.323 E38.558
G1 X80.376 Y182.317 E38.57277
G1 X80.02 Y182.306 E38.58461
G1 X79.649 Y182.288 E38.59697
G1 X78.749 Y182.204 E38.62703
G1 X77.861 Y182.041 E38.65706
G1 X76.991 Y181.801 E38.68708
G1 X76.272 Y181.537 E38.71255
G1 X76.016 Y181.432 E38.72176
G1 X75.197 Y181.053 E38.75177
G1 X74.414 Y180.602 E38.78182
G1 X73.674 Y180.084 E38.81187
G1 X72.983 Y179.503 E38.8419
G1 X72.346 Y178.863 E38.87193
G1 X71.904 Y178.344 E38.8946
G1 X71.733 Y178.129 E38.90374
G1 X71.203 Y177.398 E38.93377
G1 X70.739 Y176.623 E38.96381
G1 X70.346 Y175.81 E38.99385
G1 X70.121 Y175.24 E39.01423
G1 X70.046 Y175.032 E39.02158
G1 X69.777 Y174.17 E39.05162
G1 X69.586 Y173.287 E39.08167
G1 X69.453 Y172.065 E39.12255
G1 X69.447 Y171.941 E39.12668
G1 X69.436 Y171.578 E39.13876
G1 X69.427 Y170.821 E39.16394
G1 X69.428 Y49.014 E43.21525
G1 X69.439 Y48.334 E43.23787
G1 X69.494 Y47.433 E43.2679
G1 X69.669 Y46.341 E43.30468
G1 X69.711 Y46.147 E43.31128
G1 X69.941 Y45.273 E43.34134
G1 X70.247 Y44.424 E43.37136
G1 X70.678 Y43.509 E43.405
G1 X70.792 Y43.295 E43.41306
G1 X71.251 Y42.518 E43.44308
G1 F1500 E36.94308
G1 F300 Z0.4
;MESH:enclosure.stl
G0 F6000 X108.614 Y103.813 Z0.4
;TYPE:WALL-INNER
G1 F300 Z0.2
G1 F1500 E43.44308
G1 F1200 X111.386 Y103.813 E43.53527
G1 X114.142 Y103.514 E43.62748
G1 X116.849 Y102.918 E43.71967
G1 X119.475 Y102.032 E43.81185
G1 X121.992 Y100.869 E43.90407
G1 X124.367 Y99.44 E43.99626
G1 X126.574 Y97.762 E44.08847
G1 X128.586 Y95.855 E44.18067
G1 X130.38 Y93.742 E44.27286
G1 X131.936 Y91.449 E44.36503
G1 X133.235 Y88.999 E44.45726
G1 X134.261 Y86.425 E44.54943
G1 X135.003 Y83.753 E44.64166
G1 X135.45 Y81.018 E44.73383
G1 X135.601 Y78.25 E44.82603
G1 X135.45 Y75.482 E44.91824
G1 X135.003 Y72.747 E45.01041
G1 X134.261 Y70.075 E45.10264
G1 X133.235 Y67.501 E45.1948
G1 X131.936 Y65.051 E45.28704
G1 X130.38 Y62.758 E45.3792
G1 X128.586 Y60.645 E45.4714
G1 X126.574 Y58.738 E45.5636
G1 X124.367 Y57.06 E45.65581
G1 X121.992 Y55.631 E45.748
G1 X119.475 Y54.468 E45.84022
G1 X116.849 Y53.582 E45.9324
G1 X114.142 Y52.986 E46.02459
G1 X111.386 Y52.687 E46.11679
G1 X108.614 Y52.687 E46.20899
G1 X105.858 Y52.986 E46.30119
G1 X103.151 Y53.582 E46.39339
G1 X100.525 Y54.468 E46.48556
G1 X98.008 Y55.631 E46.57778
G1 X95.633 Y57.06 E46.66997
G1 X93.426 Y58.738 E46.76219
G1 X91.414 Y60.645 E46.85439
G1 X89.62 Y62.758 E46.94658
G1 X88.064 Y65.051 E47.03875
G1 X86.765 Y67.501 E47.13098
G1 X85.739 Y70.075 E47.22314
G1 X84.997 Y72.747 E47.31538
G1 X84.55 Y75.482 E47.40755
G1 X84.399 Y78.25 E47.49975
G1 X84.55 Y81.018 E47.59195
G1 X84.997 Y83.753 E47.68412
G1 X85.739 Y86.425 E47.77636
G1 X86.765 Y88.999 E47.86852
G1 X88.064 Y91.449 E47.96075
G1 X89.62 Y93.742 E48.05292
G1 X91.414 Y95.855 E48.14511
G1 X93.426 Y97.762 E48.23731
G1 X95.633 Y99.44 E48.32953
G1 X98.008 Y100.869 E48.42172
G1 X100.525 Y102.032 E48.51394
G1 X103.151 Y102.918 E48.60611
G1 X105.858 Y103.514 E48.69831
G1 X108.614 Y103.813 E48.79051
G0 F6000 X108.636 Y103.413
;TYPE:WALL-OUTER
G1 F1200 X111.364 Y103.413 E48.88124
G1 X114.077 Y103.119 E48.97201
G1 X116.742 Y102.532 E49.06277
G1 X119.327 Y101.66 E49.15351
G1 X121.804 Y100.515 E49.24427
G1 X124.142 Y99.108 E49.33503
G1 X126.315 Y97.457 E49.42579
G1 X128.295 Y95.58 E49.51654
G1 X130.061 Y93.5 E49.60729
G1 X131.593 Y91.242 E49.69805
G1 X132.871 Y88.831 E49.7888
G1 X133.881 Y86.297 E49.87953
G1 X134.612 Y83.667 E49.97032
G1 X135.052 Y80.975 E50.06105
G1 X135.2 Y78.25 E50.15182
G1 X135.052 Y75.525 E50.24258
G1 X134.612 Y72.833 E50.33331
G1 X133.881 Y70.203 E50.4241
G1 X132.871 Y67.669 E50.51483
G1 X131.593 Y65.258 E50.60559
G1 X130.061 Y63 E50.69634
G1 X128.295 Y60.92 E50.7871
G1 X126.315 Y59.043 E50.87784
G1 X124.142 Y57.392 E50.96861
G1 X121.804 Y55.985 E51.05936
G1 X119.327 Y54.84 E51.15013
G1 X116.742 Y53.968 E51.24086
G1 X114.077 Y53.381 E51.33163
G1 X111.364 Y53.087 E51.42239
G1 X108.636 Y53.087 E51.51312
G1 X105.923 Y53.381 E51.60389
G1 X103.258 Y53.968 E51.69465
G1 X100.673 Y54.84 E51.78539
G1 X98.196 Y55.985 E51.87615
G1 X95.858 Y57.392 E51.96691
G1 X93.685 Y59.043 E52.05767
G1 X91.705 Y60.92 E52.14842
G1 X89.939 Y63 E52.23917
G1 X88.407 Y65.258 E52.32993
G1 X87.129 Y67.669 E52.42069
G1 X86.119 Y70.203 E52.51141
G1 X85.388 Y72.833 E52.6022
G1 X84.948 Y75.525 E52.69293
G1 X84.8 Y78.25 E52.7837
G1 X84.948 Y80.975 E52.87446
G1 X85.388 Y83.667 E52.96519
G1 X86.119 Y86.297 E53.05598
G1 X87.129 Y88.831 E53.14671
G1 X88.407 Y91.242 E53.23747
G1 X89.939 Y93.5 E53.32822
G1 X91.705 Y95.58 E53.41898
G1 X93.685 Y97.457 E53.50972
G1 X95.858 Y99.108 E53.60049
G1 X98.196 Y100.515 E53.69124
G1 X100.673 Y101.66 E53.78201
G1 X103.258 Y102.532 E53.87274
G1 X105.923 Y103.119 E53.96351
G1 X108.636 Y103.413 E54.05427
G0 F6000 X108.613 Y103.852
G1 F1500 E47.55427
G1 F300 Z0.4
G0 F6000 X110.141 Y112.599 Z0.4
;TYPE:WALL-INNER
G1 F300 Z0.2
G1 F1500 E54.05427
G1 F1200 X110.697 Y112.508 E54.07301
G1 X111.22 Y112.299 E54.09174
G1 X111.678 Y111.988 E54.11015
G1 X111.912 Y111.762 E54.12097
G1 X112.231 Y111.341 E54.13854
G1 X112.466 Y110.831 E54.15722
G1 X112.587 Y110.281 E54.17595
G1 X112.587 Y109.719 E54.19464
G1 X112.466 Y109.169 E54.21337
G1 X112.235 Y108.668 E54.23172
G1 X112.069 Y108.424 E54.24154
G1 X111.864 Y108.187 E54.25196
G1 X111.459 Y107.846 E54.26957
G1 X110.963 Y107.582 E54.28826
G1 X110.431 Y107.434 E54.30662
G1 X110.13 Y107.402 E54.31669
G1 X109.579 Y107.431 E54.33504
G1 X109.037 Y107.582 E54.35376
G1 X108.55 Y107.841 E54.3721
G1 X108.314 Y108.02 E54.38195
G1 X108.088 Y108.238 E54.3924
G1 X107.769 Y108.659 E54.40997
G1 X107.534 Y109.169 E54.42864
G1 X107.413 Y109.719 E54.44737
G1 X107.413 Y110.281 E54.46607
G1 X107.534 Y110.831 E54.4848
G1 X107.765 Y111.332 E54.50315
G1 X107.931 Y111.576 E54.51296
G1 X108.136 Y111.813 E54.52338
G1 X108.541 Y112.154 E54.54099
G1 X109.037 Y112.418 E54.55968
G1 X109.579 Y112.569 E54.57839
G1 X110.141 Y112.599 E54.59711
G0 F6000 X110.119 Y112.197
;TYPE:WALL-OUTER
G1 F1200 X110.589 Y112.12 E54.61295
G1 X111.031 Y111.944 E54.62878
G1 X111.425 Y111.676 E54.64463
G1 X111.612 Y111.496 E54.65326
G1 X111.886 Y111.134 E54.66836
G1 X112.085 Y110.703 E54.68415
G1 X112.187 Y110.238 E54.69998
G1 X112.187 Y109.762 E54.71581
G1 X112.085 Y109.297 E54.73165
G1 X111.886 Y108.866 E54.74744
G1 X111.751 Y108.668 E54.75541
G1 X111.582 Y108.472 E54.76402
G1 X111.234 Y108.179 E54.77915
G1 X110.814 Y107.956 E54.79496
G1 X110.356 Y107.828 E54.81078
G1 X110.119 Y107.803 E54.81871
G1 X109.644 Y107.828 E54.83453
G1 X109.186 Y107.956 E54.85034
G1 X108.766 Y108.179 E54.86616
G1 X108.575 Y108.324 E54.87414
G1 X108.388 Y108.504 E54.88277
G1 X108.114 Y108.866 E54.89787
G1 X107.915 Y109.297 E54.91366
